libs/ui/packages/crypto-icons/src/svg/IOST.svg

<svg width="24" height="24" viewBox="0 0 24 24" fill="none">
<path d="M18.375 8.25V15.75L12 19.5L5.625 15.75V8.25L12 4.5L18.375 8.25ZM11.799 12.3052L11.2065 12.6555L12.3135 13.302L12.9022 12.9548L14.4765 13.881L12.1282 15.261L7.257 12.4215L7.23675 13.8038L12.1312 16.6462L16.8337 13.881L14.0782 12.2595L14.6332 11.9318L13.5262 11.2852L12.975 11.6108L12.2025 11.1562L12.8782 10.7565L11.7712 10.1093L11.0985 10.5068L9.783 9.73275L12.1305 8.352L15.3765 10.2487L16.566 9.54525L12.1282 6.96675L7.42575 9.73275L9.9225 11.202L9.4515 11.4795L10.5585 12.1268L11.0258 11.8507L11.799 12.3052Z" fill="#1C1C1C"/>
</svg>

<svg width="24" height="24" viewBox="0 0 24 24" fill="none"><path fill="#1c1c1c" d="M18.375 8.25v7.5L12 19.5l-6.375-3.75v-7.5L12 4.5zm-6.576 4.055-.592.35 1.106.647.59-.347 1.573.926-2.348 1.38-4.871-2.84-.02 1.383 4.894 2.842 4.703-2.765-2.756-1.622.555-.327-1.107-.647-.551.326-.772-.455.675-.4-1.107-.647-.673.398-1.315-.774 2.348-1.381 3.246 1.897 1.189-.704-4.438-2.578-4.702 2.766 2.496 1.469-.47.277 1.107.648.467-.276z"/></svg>
